X: 33945
T: Redback, The
R: jig
M: 6/8
K: Amixolydian
d|:e2d cBA|eaf ged|e2d cBA|~g3 Bcd|
e2d cBA|eaf ~g3|fed ecA|dBG A2d:|
|:e2d cBA|~d3 cBA|~d3 cBA|agf ~g3|
[1 e2d cBA|agf ~g3|fed ecA|dBG A2d:|
[2 agf gfe|fed ~g3|fed ecA|BA^G A2d||

